X:1
T:Oh! Susanna
T:Oh! Susanna
T:Stephen Foster arr. Marc Sabatella 
T:SATB arrangement
C:Stephen Foster
%%score { ( 1 2 ) | ( 3 4 ) }
L:1/8
Q:1/4=104
M:4/4
K:G
V:1 treble nm="Piano" snm="Pno."
V:2 treble 
V:3 bass 
V:4 bass 
V:1
 GA | B2 d2 d2 e2 | d2 B2 G2 A2 | B2 B2 A2 G2 | A6 GA | B2 d2 d2 e2 | d2 B2 G2 A2 | B2 B2 A2 A2 | %8
 G6 GA || B2 d2 d2 e2 | d2 B2 G2 A2 | B2 B2 A2 G2 | A6 GA | B2 d2 d2 e2 | d2 B2 G2 A2 | %15
 B2 B2 A2 A2 | G8 || c4 c4 | e2 e4 e2 | d2 d2 B2 G2 | A6 GA | B2 d2 d2 e2 | d2 B2 G2 A2 | %23
 B2 B2 A2 A2 | G8 |] %25
V:2
 B,C | D2 G2 E2 G2 | A2 F2- FE F2 | G2 G2 F2 ^D2 | E2 E2 _E4 | D2 G=F =E2 G2 | ^FE ^D2 =D2 ^C2 | %7
 D2 GE F2 D_E | D4- D=EDC || D2 G2 EF G2 | A2 F2- FE F2 | G2 G2 F2 ^D2 | E2 E2 _E4 | %13
 D2 G=F =E2 G2 | ^FE ^D2 =D2 ^C2 | D2 GE F2 D_E | D2 C2 B,4 || E4 G4 | G4 F2 ^A2 | B2 =A2 G2 E2- | %20
 E2 E2 _E4 | D2 G2 =E2 G2 | G2 F2 D2 ^C2 | D2 GF- FE _E2 | D8 |] %25
V:3
 z2 | G,2 G,2 B,2 C2 | B,2 A,2 G,2 D2 | D2 D2 ^C2 C2 | =C2 G,2 F,2 G,F, | G,2 G,2 B,2 CB, | %6
 A,2 A,C B,A, G,2 | G,2 A,2 =C2 C2- | C2 B,2 B,CB,F, || G,2 G,2 B,2 C2 | B,2 A,2 G,2 D2 | %11
 D2 D2 ^C2 C2 | =C2 G,2 F,2 G,F, | G,2 G,2 B,2 CB, | A,2 A,C B,A, G,2 | G,2 A,2 =C2 C2 | %16
 B,2 A,2 _A,4 || G,4 E2 D2 | C4 D2 G2 | F2 B,2 D2 B,2- | B,2 A,G, A,2 =F,2 | G,2 D2 B,2 _B,2 | %22
 =B,2 A,C B,A, G,2 | G,2 D2 =C2 C2 | B,8 |] %25
V:4
 x2 | G,,2 B,,2 C,2 A,,2 | B,,2 D,2 E,2 G,2 | A,2 E,2 G,2 A,2 | A,,4 D,4 | G,,2 B,,2 C,2 A,,2 | %6
 B,,2 F,2 E,2 _E,2 | D,2 ^C,2 D,2 F,2 | G,4 D,4 || G,,A,, B,,2 C,2 A,,2 | B,,2 D,2 E,2 G,2 | %11
 A,2 E,2 G,2 A,2 | A,,4 D,4 | G,,A,, B,,2 C,2 A,,2 | B,,2 F,2 E,2 _E,2 | D,2 ^C,2 D,2 F,2 | %16
 G,2 D,2 G,,4 || C,4 C,2 B,,2 | A,,4 D,2 C,2 | B,,2 F,2 E,2 D,2 | ^C,4 =C,4 | B,,4 C,2 ^C,2 | %22
 D,2 ^D,2 E,2 _E,2 | =D,4 D,4 | G,,8 |] %25

